X:179
U: ~ = !turn!
%%topmargin 3cm
T:Sailor on the Rock
B:Traditional Irish Fiddle Tunes. Randy Miller and Jack Perron.
S:Denis Murphy
Z:Transcribed by Ralph Palmer
R:Reel
M:C|
L:1/8
K:Bm
defd {Bc}BAFG | AD ((3FED) FAAB | defd {Bc}BAFG | ABdf eB (3.B.B.B |
defd {Bc}BAFG | AD ((3FED) FAAB | defd {Bc}BAFG | ABdf e2 de ||
faag fdBd | {ga}gfga bgeg | faaf ((3gfe) dB | ABdf e2 de |
faag fdBd | {ga}gfga bgeg | faaf ((3gfe) dB | ABdf eB (3.B.B.B |]
